public/assets/images/field-d10.svg

<svg width="18" height="18" viewBox="0 0 18 18" fill="none" xmlns="http://www.w3.org/2000/svg">
<path d="M12.6694 9.58727L15.3142 6.9425C16.5922 5.66442 16.5922 3.59225 15.3142 2.31417V2.31417C14.0361 1.03609 11.9639 1.03609 10.6858 2.31417L8.04107 4.95893C6.76299 6.23701 6.76299 8.30919 8.04107 9.58727V9.58727" stroke="#4F66EE" stroke-linecap="round" stroke-linejoin="round"/>
<path d="M5.23099 7.76894L2.58622 10.4137C1.30814 11.6918 1.30814 13.764 2.58622 15.042V15.042C3.8643 16.3201 5.93648 16.3201 7.21456 15.042L9.85932 12.3973C11.1374 11.1192 11.1374 9.04702 9.85932 7.76894V7.76894" stroke="#4F66EE" stroke-linecap="round" stroke-linejoin="round"/>
</svg>

<svg width="18" height="18" fill="none" xmlns="http://www.w3.org/2000/svg"><path d="M12.67 9.587l2.644-2.644a3.273 3.273 0 000-4.629v0a3.273 3.273 0 00-4.628 0L8.04 4.96a3.273 3.273 0 000 4.628v0" stroke="#4F66EE" stroke-linecap="round" stroke-linejoin="round"/><path d="M5.231 7.769l-2.645 2.645a3.273 3.273 0 000 4.628v0a3.273 3.273 0 004.629 0l2.644-2.645a3.273 3.273 0 000-4.628v0" stroke="#4F66EE" stroke-linecap="round" stroke-linejoin="round"/></svg>
